data/yellowtail.svg

<svg width="49.007" height="17.821" viewBox="0 0 49.007 17.821" xmlns="http://www.w3.org/2000/svg"><path transform="translate(0 13.604) scale(.0068359 -.0068359)" d="m1683 1389 38 2q17 0 38.5-15t21.5-26q-5-22-236-402-721-1185-794-1337 37 39 81.5 76.5t50 37.5 11.5-6.5 6-13-9-16.5-62.5-79.5-79.5-99-46.5-63-35-47.5-35.5-14q-61 0-102.5 52.5t-41.5 88.5q0 70 297.5 546t524.5 799q-525-620-836-814-108-68-176-68-33 0-65.5 19t-47 48-14.5 103.5 64 214 165 298.5q179 284 330 486-134-121-219-121-39 0-51.5 11.5t-34 36-21.5 54 10.5 46.5 19.5 26q34 34 44 40t24.5 6 14.5-4.5-10.5-13.5-10.5-14 11-5 28 5.5 44.5 20 50 27 67.5 39 68.5 39.5 69 46.5 67.5 45.5q37 22 60.5 13t37-12 24-8.5 19.5-12.5q31-22 31-51.5t-28.5-68.5-127.5-184.5-223.5-334-219-353.5-94.5-208q0-15 8-15t59 39q268 207 683 649 341 363 402 449 19 26 37.5 35t56.5 9z"/><path transform="translate(9.3105 13.604) scale(.0068359 -.0068359)" d="m750 748q0-66-53.5-116t-121.5-50q-22 0-29 10.5t-7 27.5 4 33q-36-12-80-37t-108-74-64-73q0-8 23.5-8t72.5 16.5 68.5 16.5 25.5-2q13-7 28-30.5t15-37-26-35.5-59-33.5-44-17.5q-211-118-211-162 0-78 133-78 85 0 171 54 73 46 131.5 93.5t74 58.5 23.5 11q26 0 26-58t-7-76.5-40-45.5q-214-174-405-174-102 0-163 28-112 51-112 156 0 138 191 209-38 17-49 43.5t-11 85 54.5 124 133.5 107.5q176 95 314 95 33 0 67-16t34-45z"/><path transform="translate(13.754 13.604) scale(.0068359 -.0068359)" d="m604 704q-174-222-334-399-1-12-8.5-44.5t-7.5-65.5 30.5-59.5 75.5-26.5 96.5 32 89.5 71q100 103 124 103t24-73v-20q0-39-14-57-84-103-189-153.5t-199-50.5-143 57.5-49 157.5q0 195 104.5 458.5t235.5 448.5q295 418 451 418 48 0 84.5-28.5t36.5-84.5-62-175.5-149-244-197-264.5zm242 631q0 15-10 15-35 0-184-200t-215.5-319-125.5-299q118 140 326.5 436.5t208.5 366.5z"/><path transform="translate(17.363 13.604) scale(.0068359 -.0068359)" d="m604 704q-174-222-334-399-1-12-8.5-44.5t-7.5-65.5 30.5-59.5 75.5-26.5 96.5 32 89.5 71q100 103 124 103t24-73v-20q0-39-14-57-84-103-189-153.5t-199-50.5-143 57.5-49 157.5q0 195 104.5 458.5t235.5 448.5q295 418 451 418 48 0 84.5-28.5t36.5-84.5-62-175.5-149-244-197-264.5zm242 631q0 15-10 15-35 0-184-200t-215.5-319-125.5-299q118 140 326.5 436.5t208.5 366.5z"/><path transform="translate(20.973 13.604) scale(.0068359 -.0068359)" d="m318 678q163 131 286 131 55 0 83-27 10-9 10-16v-6q14 2 44 2t61.5-27 31.5-82.5-39-144-107-180-149.5-172-176-132-171.5-51.5-123.5 48.5-46.5 135 42.5 191.5 109.5 185.5 145 144.5zm322-49h-7q-35 0-35 51-73-24-153-84t-143-142q-128-164-130-277 0-56 41-56t122 54 160.5 154 119 173.5 39.5 100-14 26.5z"/><path transform="translate(26.1 13.604) scale(.0068359 -.0068359)" d="m1101 743-12 48q0 41 28.5 64.5t71.5 23.5q84 0 84-107 0-77-76-212.5t-179.5-262-219.5-220-178.5-93.5-88.5 34-26 65.5 3 59.5q11 98 54 187-107-140-230-251.5t-206-111.5q-40 0-64 24t-24 81.5 69 216 132 254.5q-23-14-40.5-14t-38 19.5-20.5 30.5 15 32 115 103.5 137 82.5 70.5-14 33.5-38.5-139-285.5-139-283q0-3 2-3 21 0 209.5 214t296.5 352q15 25 45 25l9-1 55 11q13 0 25.5-10t12.5-18-35.5-72-115.5-242-80-250q0-18 13-18 38 0 158.5 137.5t196.5 263.5 76 178z"/><path transform="translate(33.852 13.604) scale(.0068359 -.0068359)" d="m750 1288 41-10q9 0 16-9t7-17-21-43-49.5-79.5-30.5-48.5q78 6 110.5 6t44.5-4.5 27.5-25 28.5-31 13-31.5-25.5-35.5-54.5-17.5q-232-23-256-24-81-124-226.5-386.5t-154.5-328.5q-4-30-4-49 0-39 41-39t91 31.5 92 68.5q112 100 120 100 26 0 26-90 0-49-45-88-101-87-170-131t-138-44q-15 0-28 3-80 15-117.5 58.5t-37 117.5 44 179.5 109.5 224.5q108 194 216 364l-38-5q-116-13-135-13h-9q-29 0-56 11.5t-27 28.5 14.5 33 17.5 25q7 22 52.5 49t68.5 28.5 44.5 2.5 48 2 40.5 2l90 4q84 126 115.5 162t36.5 39.5 20 3.5z"/><path transform="translate(36.859 13.604) scale(.0068359 -.0068359)" d="m825 760q76 0 76-52 0-28-13-41t-55.5-86.5-94-188-66.5-195.5q-3-10-3-28 0-55 30-55t71 28.5 73 61 62.5 66.5 36.5 39 18 5q19 0 23-29t4-60-6-43q-29-57-127.5-137t-179-80-118.5 49-38 108.5 20 104.5q-83-108-190.5-183t-175.5-75-111 41q-55 51-55 141.5t40.5 182 106.5 167 145 137.5q166 130 306 130 54 0 88-18t43-45q24 36 40.5 45.5t49.5 9.5zm-133-111q-171 0-354-190-65-68-119.5-163t-54.5-130 20-35q28 0 156 110.5t170 162.5q46 58 182 245z"/><path transform="translate(42.561 13.604) scale(.0068359 -.0068359)" d="m713 1098q0-57-53-114.5t-110.5-57.5-57.5 60 50.5 114.5 111.5 54.5q27 0 43-15t16-42zm-162-873q0-30-6-43-49-100-156-161.5t-186-61.5-136 53-57 108 55 160 110 194 55 96.5-20.5 29.5-20.5 32.5 41.5 55 101 88 91 43.5 56.5-28 25-51-238-433q-3-6-16.5-26.5t-21-34-17.5-32.5q-20-40-20-67 0-34 46-34t95.5 31.5 85.5 69.5q94 101 107 101 26 0 26-90z"/><path transform="translate(45.397 13.604) scale(.0068359 -.0068359)" d="m604 704q-174-222-334-399-1-12-8.5-44.5t-7.5-65.5 30.5-59.5 75.5-26.5 96.5 32 89.5 71q100 103 124 103t24-73v-20q0-39-14-57-84-103-189-153.5t-199-50.5-143 57.5-49 157.5q0 195 104.5 458.5t235.5 448.5q295 418 451 418 48 0 84.5-28.5t36.5-84.5-62-175.5-149-244-197-264.5zm242 631q0 15-10 15-35 0-184-200t-215.5-319-125.5-299q118 140 326.5 436.5t208.5 366.5z"/></svg>

<?xml version="1.0" encoding="utf-8" ?>
<svg baseProfile="tiny" height="100%" version="1.2" width="100%" xmlns="http://www.w3.org/2000/svg" xmlns:ev="http://www.w3.org/2001/xml-events" xmlns:xlink="http://www.w3.org/1999/xlink"><defs /><g><path d="M1683 1389 1721 1391Q1738 1391 1759.5 1376.0Q1781 1361 1781 1350Q1776 1328 1545 948Q824 -237 751 -389Q788 -350 832.5 -312.5Q877 -275 882.5 -275.0Q888 -275 894.0 -281.5Q900 -288 900.0 -294.5Q900 -301 891.0 -311.0Q882 -321 828.5 -390.5Q775 -460 749.0 -489.5Q723 -519 702.5 -552.5Q682 -586 667.5 -600.0Q653 -614 632 -614Q571 -614 529.5 -561.5Q488 -509 488 -473Q488 -403 785.5 73.0Q1083 549 1310 872Q785 252 474 58Q366 -10 298 -10Q265 -10 232.5 9.0Q200 28 185.5 57.0Q171 86 171.0 160.5Q171 235 235.0 374.5Q299 514 400 673Q579 957 730 1159Q596 1038 511 1038Q472 1038 459.5 1049.5Q447 1061 425.5 1085.5Q404 1110 404.0 1139.5Q404 1169 414.5 1186.0Q425 1203 434 1212Q468 1246 478.0 1252.0Q488 1258 502.5 1258.0Q517 1258 517.0 1253.5Q517 1249 506.5 1240.0Q496 1231 496.0 1226.0Q496 1221 507.0 1221.0Q518 1221 535.0 1226.5Q552 1232 579.5 1246.5Q607 1261 629.5 1273.5Q652 1286 697.0 1312.5Q742 1339 765.5 1352.0Q789 1365 834.5 1398.5Q880 1432 902 1444Q939 1466 962.5 1457.0Q986 1448 999.5 1445.0Q1013 1442 1023.5 1436.5Q1034 1431 1043 1424Q1074 1402 1074.0 1372.5Q1074 1343 1045.5 1304.0Q1017 1265 918.0 1119.5Q819 974 694.5 785.5Q570 597 475.5 432.0Q381 267 381 224Q381 209 389.0 209.0Q397 209 448 248Q716 455 1131 897Q1472 1260 1533 1346Q1552 1372 1570.5 1381.0Q1589 1390 1627 1390Z" transform="translate(0.0, 72) scale(0.03515625, -0.03515625)" /><path d="M750 748Q750 682 696.5 632.0Q643 582 575 582Q553 582 546.0 592.5Q539 603 539.0 620.0Q539 637 543 653Q507 641 463.0 616.0Q419 591 355.0 542.0Q291 493 291 469Q291 461 314.5 461.0Q338 461 387.0 477.5Q436 494 455.5 494.0Q475 494 481 492Q494 485 509.0 461.5Q524 438 524.0 424.5Q524 411 498.0 389.0Q472 367 439.0 355.5Q406 344 395 338Q184 220 184 176Q184 98 317 98Q402 98 488 152Q561 198 619.5 245.5Q678 293 693.5 304.0Q709 315 717 315Q743 315 743.0 257.0Q743 199 736.0 180.5Q729 162 696 135Q482 -39 291 -39Q189 -39 128 -11Q16 40 16 145Q16 283 207 354Q169 371 158.0 397.5Q147 424 147.0 482.5Q147 541 201.5 606.5Q256 672 335 714Q511 809 649 809Q682 809 716.0 793.0Q750 777 750 748Z" transform="translate(47.8828125, 72) scale(0.03515625, -0.03515625)" /><path d="M604 704Q430 482 270 305Q269 293 261.5 260.5Q254 228 254.0 195.0Q254 162 284.5 135.5Q315 109 360.0 109.0Q405 109 456.5 141.0Q508 173 546 212Q646 315 670.0 315.0Q694 315 694 242V222Q694 183 680 165Q596 62 491.0 11.5Q386 -39 292.0 -39.0Q198 -39 149.0 18.5Q100 76 100 176Q100 371 204.5 634.5Q309 898 440 1083Q735 1501 891 1501Q939 1501 975.5 1472.5Q1012 1444 1012.0 1388.0Q1012 1332 950.0 1212.5Q888 1093 801.0 968.5Q714 844 604 704ZM846 1335Q846 1350 836 1350Q801 1350 652.0 1150.0Q503 950 436.5 831.0Q370 712 311 532Q429 672 637.5 968.5Q846 1265 846 1335Z" transform="translate(70.734375, 72) scale(0.03515625, -0.03515625)" /><path d="M604 704Q430 482 270 305Q269 293 261.5 260.5Q254 228 254.0 195.0Q254 162 284.5 135.5Q315 109 360.0 109.0Q405 109 456.5 141.0Q508 173 546 212Q646 315 670.0 315.0Q694 315 694 242V222Q694 183 680 165Q596 62 491.0 11.5Q386 -39 292.0 -39.0Q198 -39 149.0 18.5Q100 76 100 176Q100 371 204.5 634.5Q309 898 440 1083Q735 1501 891 1501Q939 1501 975.5 1472.5Q1012 1444 1012.0 1388.0Q1012 1332 950.0 1212.5Q888 1093 801.0 968.5Q714 844 604 704ZM846 1335Q846 1350 836 1350Q801 1350 652.0 1150.0Q503 950 436.5 831.0Q370 712 311 532Q429 672 637.5 968.5Q846 1265 846 1335Z" transform="translate(89.296875, 72) scale(0.03515625, -0.03515625)" /><path d="M318 678Q481 809 604 809Q659 809 687 782Q697 773 697 766V760Q711 762 741.0 762.0Q771 762 802.5 735.0Q834 708 834.0 652.5Q834 597 795.0 508.5Q756 420 688.0 328.5Q620 237 538.5 156.5Q457 76 362.5 24.5Q268 -27 191.0 -27.0Q114 -27 67.5 21.5Q21 70 21.0 156.5Q21 243 63.5 348.0Q106 453 173.0 533.5Q240 614 318 678ZM640 629H633Q598 629 598 680Q525 656 445.0 596.0Q365 536 302 454Q174 290 172 177Q172 121 213.0 121.0Q254 121 335.0 175.0Q416 229 495.5 329.0Q575 429 614.5 502.5Q654 576 654.0 602.5Q654 629 640 629Z" transform="translate(107.859375, 72) scale(0.03515625, -0.03515625)" /><path d="M1101 743 1089 791Q1089 832 1117.5 855.5Q1146 879 1189 879Q1273 879 1273 772Q1273 695 1197.0 559.5Q1121 424 1017.5 297.5Q914 171 798.0 77.5Q682 -16 619.5 -16.0Q557 -16 531.0 18.0Q505 52 505.0 83.5Q505 115 508 143Q519 241 562 330Q455 190 332.0 78.5Q209 -33 126 -33Q86 -33 62.0 -9.0Q38 15 38.0 72.5Q38 130 107.0 288.5Q176 447 239 543Q216 529 198.5 529.0Q181 529 160.5 548.5Q140 568 140.0 579.0Q140 590 155.0 611.0Q170 632 270.0 714.5Q370 797 407.0 797.0Q444 797 477.5 783.0Q511 769 511.0 744.5Q511 720 372.0 459.0Q233 198 233 176Q233 173 235 173Q256 173 444.5 387.0Q633 601 741 739Q756 764 786 764L795 763L850 774Q863 774 875.5 764.0Q888 754 888.0 746.0Q888 738 852.5 674.0Q817 610 737.0 432.0Q657 254 657 182Q657 164 670 164Q708 164 828.5 301.5Q949 439 1025.0 565.0Q1101 691 1101 743Z" transform="translate(134.2265625, 72) scale(0.03515625, -0.03515625)" /><path d="M750 1288 791 1278Q800 1278 807.0 1269.0Q814 1260 814.0 1252.0Q814 1244 793.0 1209.0Q772 1174 743.5 1129.5Q715 1085 713 1081Q791 1087 823.5 1087.0Q856 1087 868.0 1082.5Q880 1078 895.5 1057.5Q911 1037 924.0 1026.5Q937 1016 937.0 995.0Q937 974 911.5 959.5Q886 945 857 942Q625 919 601 918Q520 794 374.5 531.5Q229 269 220 203Q216 173 216 154Q216 115 257.0 115.0Q298 115 348.0 146.5Q398 178 440 215Q552 315 560 315Q586 315 586 225Q586 176 541 137Q440 50 371.0 6.0Q302 -38 233 -38Q218 -38 205 -35Q125 -20 87.5 23.5Q50 67 50.5 141.0Q51 215 94.5 320.5Q138 426 204 545Q312 739 420 909L382 904Q266 891 247 891H238Q209 891 182.0 902.5Q155 914 155.0 931.0Q155 948 169.5 964.0Q184 980 187 989Q194 1011 239.5 1038.0Q285 1065 308.0 1066.5Q331 1068 352.5 1069.0Q374 1070 400.5 1071.0Q427 1072 441 1073L531 1077Q615 1203 646.5 1239.0Q678 1275 683.0 1278.5Q688 1282 703 1282Z" transform="translate(174.09375, 72) scale(0.03515625, -0.03515625)" /><path d="M825 760Q901 760 901 708Q901 680 888.0 667.0Q875 654 832.5 580.5Q790 507 738.5 392.5Q687 278 672 197Q669 187 669 169Q669 114 699.0 114.0Q729 114 770.0 142.5Q811 171 843.0 203.5Q875 236 905.5 270.0Q936 304 942.0 309.0Q948 314 960 314Q979 314 983.0 285.0Q987 256 987.0 225.0Q987 194 981 182Q952 125 853.5 45.0Q755 -35 674.5 -35.0Q594 -35 556.0 14.0Q518 63 518.0 122.5Q518 182 538 227Q455 119 347.5 44.0Q240 -31 172.0 -31.0Q104 -31 61 10Q6 61 6.0 151.5Q6 242 46.5 333.5Q87 425 153.0 500.5Q219 576 298 638Q464 768 604 768Q658 768 692.0 750.0Q726 732 735 705Q759 741 775.5 750.5Q792 760 825 760ZM692 649Q521 649 338 459Q273 391 218.5 296.0Q164 201 164.0 166.0Q164 131 184 131Q212 131 340.0 241.5Q468 352 510 404Q556 462 692 649Z" transform="translate(189.5625, 72) scale(0.03515625, -0.03515625)" /><path d="M713 1098Q713 1041 660.0 983.5Q607 926 549.5 926.0Q492 926 492.0 986.0Q492 1046 542.5 1100.5Q593 1155 654 1155Q681 1155 697.0 1140.0Q713 1125 713 1098ZM551 225Q551 195 545 182Q496 82 389.0 20.5Q282 -41 203.0 -41.0Q124 -41 67.0 12.0Q10 65 10.0 120.0Q10 175 65.0 280.0Q120 385 175.0 474.0Q230 563 230.0 570.5Q230 578 209.5 600.0Q189 622 189.0 632.5Q189 643 230.5 687.5Q272 732 331.5 775.5Q391 819 422.5 819.0Q454 819 479.0 791.0Q504 763 504.0 740.0Q504 717 266 307Q263 301 249.5 280.5Q236 260 228.5 246.5Q221 233 211 214Q191 174 191 147Q191 113 237.0 113.0Q283 113 332.5 144.5Q382 176 418 214Q512 315 525 315Q551 315 551 225Z" transform="translate(218.8828125, 72) scale(0.03515625, -0.03515625)" /><path d="M604 704Q430 482 270 305Q269 293 261.5 260.5Q254 228 254.0 195.0Q254 162 284.5 135.5Q315 109 360.0 109.0Q405 109 456.5 141.0Q508 173 546 212Q646 315 670.0 315.0Q694 315 694 242V222Q694 183 680 165Q596 62 491.0 11.5Q386 -39 292.0 -39.0Q198 -39 149.0 18.5Q100 76 100 176Q100 371 204.5 634.5Q309 898 440 1083Q735 1501 891 1501Q939 1501 975.5 1472.5Q1012 1444 1012.0 1388.0Q1012 1332 950.0 1212.5Q888 1093 801.0 968.5Q714 844 604 704ZM846 1335Q846 1350 836 1350Q801 1350 652.0 1150.0Q503 950 436.5 831.0Q370 712 311 532Q429 672 637.5 968.5Q846 1265 846 1335Z" transform="translate(233.47265625, 72) scale(0.03515625, -0.03515625)" /></g></svg>
